X: 1
T: Mississippi Palisades
C: Chirps Smith [New Bad Habits]
R: reel
Z: 2020 John Chambers <jc:trillian.mit.edu> 2020-7-29
S: https://www.facebook.com/groups/Fiddletuneoftheday/
S: https://www.facebook.com/groups/Fiddletuneoftheday/photos/
M: C|
L: 1/8
K: G
DE |\
G2GD B,2DE | G2BA GABG | AGBG cBGB | AFA^c d2 (3DEF ||\
G2GD B,2DE | GABA GABG | AGBG cGBG | AGFD [1 G2 :|[2 G4 |
|:\
dcdc BcdB | c2c2 E2c2 | B2GA cBAG | FGA^c d2 d2- ||\
dedc BcdB | c2c2 E2c2 | B2G2 cBAG | FGAF G4 :|
